X: 7
T: Julia Delaney's
R: reel
M: 4/4
L: 1/8
K: Ddor
|:c|"Dm"dcAG F2 DF|"C"E2 CE "Dm" FEFA|"Dm"dcAG F2 DF|Add^c defe|
"Dm"dcAG F2 DF|"C"E2 CE "Dm"FEFA|"Dm"dcAG F2 DF|"A"Add^c "Dm"d2 d:|
|:e|"Dm"fede "(F)"fagf|"C"ecgc acge|"Dm"fede "(F)"fagf|"C"edcG "Dm"Adde|
"Dm"fede "(F)"fagf|"C"ecgc acge|"Dm"fedf "C"edcG|"A"Add^c "D"d2 d:|


